packages/core/src/svgs/tkp.svg

<svg width="24" height="24" viewBox="0 0 24 24" fill="none" xmlns="http://www.w3.org/2000/svg">
<g clip-path="url(#clip0_31_19808)">
<path d="M0 0H24V24H0V0Z" fill="#F0F3FA"/>
<path d="M11.6699 12.1029L14.0613 9.07721C13.3691 8.55564 12.5108 8.30369 11.6466 8.36835C10.7823 8.43302 9.97104 8.80988 9.36417 9.42864C8.75291 10.0531 8.38399 10.8748 8.32352 11.7465C8.26305 12.6182 8.51498 13.4829 9.03417 14.1858C9.54823 14.8839 10.2985 15.3715 11.1453 15.5575C11.9921 15.7436 12.8776 15.6155 13.637 15.1972C14.3979 14.7714 14.9819 14.0883 15.2844 13.2706C15.5868 12.4529 15.5877 11.5541 15.287 10.7358L11.6699 12.1072V12.1029Z" fill="#00A9FF"/>
<path d="M16.1144 10.0155C15.874 9.35735 15.4502 8.7818 14.893 8.35693L12.5144 11.3912L16.1144 10.0198V10.0155Z" fill="#00A9FF"/>
<path d="M18.6644 9.45872L16.9115 10.1402C17.356 11.3541 17.3525 12.687 16.9015 13.8986C16.4505 15.1102 15.5816 16.1209 14.4515 16.7487C13.3247 17.3662 12.0116 17.5523 10.7576 17.2723C9.50359 16.9924 8.39439 16.2654 7.63723 15.2273C6.87091 14.1836 6.50173 12.901 6.59599 11.6097C6.69025 10.3183 7.24177 9.10288 8.15151 8.18158C9.05447 7.2673 10.2596 6.71336 11.5415 6.62344C12.8233 6.53351 14.094 6.91375 15.1158 7.69301L16.3029 6.22301C15.2416 5.39518 13.9676 4.88464 12.6282 4.7504C11.2889 4.61616 9.93893 4.86371 8.73437 5.46444C7.52359 6.0732 6.50621 7.00706 5.7962 8.16139C5.08619 9.31572 4.71159 10.6449 4.71437 12.0002C4.71437 14.9144 6.43294 17.5502 9.08151 18.6987C10.3766 19.2595 11.8089 19.4236 13.1973 19.1703C14.5857 18.9171 15.8678 18.2578 16.8815 17.2759C17.9037 16.2854 18.6162 15.0195 18.9327 13.6318C19.2492 12.2441 19.156 10.7944 18.6644 9.45872Z" fill="#FFAF14"/>
<path d="M18.0343 5.90133C17.8071 5.69561 17.5714 5.49847 17.3185 5.32275L16.1143 6.68561C16.9343 7.24421 17.5686 8.03522 17.9357 8.95704L19.7143 8.33561C19.3412 7.41116 18.7674 6.58116 18.0343 5.90561V5.90133Z" fill="#FFAF14"/>
</g>
<defs>
<clipPath id="clip0_31_19808">
<rect width="24" height="24" fill="white"/>
</clipPath>
</defs>
</svg>

<svg xmlns="http://www.w3.org/2000/svg" width="24" height="24" fill="none" viewBox="0 0 24 24"><g clip-path="url(#a)"><path fill="#F0F3FA" d="M0 0h24v24H0z"/><path fill="#00A9FF" d="m11.67 12.103 2.391-3.026a3.57 3.57 0 0 0-4.697.352 3.68 3.68 0 0 0-.33 4.757 3.574 3.574 0 0 0 4.603 1.011 3.665 3.665 0 0 0 1.65-4.461l-3.617 1.371z"/><path fill="#00A9FF" d="M16.114 10.016a3.67 3.67 0 0 0-1.221-1.66l-2.379 3.035 3.6-1.371z"/><path fill="#FFAF14" d="m18.664 9.459-1.753.681a5.426 5.426 0 0 1-2.46 6.609 5.29 5.29 0 0 1-6.814-1.522 5.44 5.44 0 0 1 .515-7.045 5.284 5.284 0 0 1 6.964-.489l1.187-1.47a7.13 7.13 0 0 0-7.569-.759A7.3 7.3 0 0 0 4.714 12c0 2.914 1.719 5.55 4.368 6.699a7.135 7.135 0 0 0 7.8-1.423 7.35 7.35 0 0 0 1.782-7.817"/><path fill="#FFAF14" d="M18.034 5.901a7 7 0 0 0-.715-.578l-1.205 1.363a4.98 4.98 0 0 1 1.822 2.271l1.778-.621a6.7 6.7 0 0 0-1.68-2.43z"/></g><defs><clipPath id="a"><path fill="#fff" d="M0 0h24v24H0z"/></clipPath></defs></svg>
